svg/pills_4_negative.svg

<svg width="48" height="48" viewBox="0 0 48 48" fill="none" xmlns="http://www.w3.org/2000/svg">
<path fill-rule="evenodd" clip-rule="evenodd" d="M0 0V47.9994H47.9994V0H0ZM13.7518 4.00385C16.5218 4.08905 19.2018 5.38333 20.9797 7.6757C21.4717 8.3506 21.1357 8.69739 20.6967 8.94129L5.81093 17.2248C5.57673 17.3548 5.34363 17.4848 5.12884 17.4628C4.91404 17.4408 4.71664 17.2678 4.55464 16.7908C2.94636 12.4508 4.71254 7.50561 8.84169 5.20093C10.3949 4.33785 12.0898 3.95275 13.7518 4.00385ZM34.3766 4.02925C38.3215 3.99595 42.0065 6.44192 43.3995 10.3379C44.9884 14.8028 43.0445 19.6998 38.9585 21.9017C38.7715 21.9957 38.6145 22.0417 38.4795 22.0507C38.0765 22.0767 37.8835 21.7677 37.7575 21.4137L32.0406 5.36693C31.9506 5.11514 31.8606 4.86254 31.9176 4.65424C31.9746 4.44594 32.1786 4.28045 32.6756 4.19915C33.2436 4.09025 33.8126 4.03395 34.3766 4.02925ZM30.3926 5.02724C30.7976 4.99794 31.0046 5.29283 31.1246 5.62883L36.8705 21.7556C37.0315 22.2086 37.2015 22.6996 36.2595 22.8606C35.6896 22.9726 35.1176 23.0296 34.5526 23.0366C30.5936 23.0856 26.8897 20.6396 25.4917 16.7317C24.8967 15.0597 24.7977 13.3267 25.1207 11.6968C25.6587 8.98149 27.3707 6.55452 29.9176 5.17564C30.1006 5.08354 30.2576 5.03694 30.3926 5.02714V5.02724ZM21.8137 9.54288C22.0197 9.56458 22.2137 9.72998 22.3707 10.1819C24.0047 14.5308 22.2407 19.4988 18.0998 21.8107C16.5478 22.6727 14.8558 23.0557 13.1948 23.0057C10.4279 22.9217 7.7523 21.6347 5.97263 19.3498C5.48853 18.6868 5.80503 18.3148 6.22062 18.0838L21.1794 9.75968C21.3894 9.64278 21.6074 9.52108 21.8134 9.54288H21.8137ZM13.3648 24.9747C17.3238 24.9257 21.0277 27.3717 22.4257 31.2786C23.0207 32.9506 23.1197 34.6846 22.7967 36.3135C22.2587 39.0295 20.5467 41.4565 17.9998 42.8355C17.2668 43.2035 16.9528 42.8305 16.7928 42.3825L11.0469 26.2557C10.8859 25.8027 10.7159 25.3117 11.6579 25.1497C12.2278 25.0387 12.7998 24.9817 13.3648 24.9747ZM34.7226 25.0057C37.4895 25.0887 40.1655 26.3767 41.9445 28.6616C42.4285 29.3246 42.1125 29.6956 41.6965 29.9276L26.7377 38.2515C26.3177 38.4855 25.8617 38.7325 25.5467 37.8295C23.9127 33.4796 25.6767 28.5126 29.8176 26.2007C31.3696 25.3387 33.0616 24.9557 34.7226 25.0057ZM9.43688 25.9607C9.84038 25.9347 10.0334 26.2427 10.1594 26.5977L15.8763 42.6445C15.9663 42.8965 16.0563 43.1485 15.9993 43.3565C15.9423 43.5655 15.7383 43.7305 15.2413 43.8115C10.6954 44.6834 6.10972 42.1255 4.51744 37.6735C2.92876 33.2086 4.87204 28.3106 8.95839 26.1087C9.14509 26.0157 9.30238 25.9697 9.43688 25.9607ZM42.7885 30.5486C43.0035 30.5706 43.2005 30.7436 43.3625 31.2206C44.9714 35.5606 43.2045 40.5055 39.0755 42.8105C34.9336 45.1124 29.7826 44.0034 26.9377 40.3355C26.4457 39.6605 26.7817 39.3135 27.2207 39.0695L42.1065 30.7866C42.3405 30.6566 42.5735 30.5266 42.7885 30.5486Z" fill="#333333"/>
</svg>

<?xml version="1.0" encoding="UTF-8" standalone="no"?>
<!-- Created with Inkscape (http://www.inkscape.org/) -->
<svg id="svg8" xmlns:rdf="http://www.w3.org/1999/02/22-rdf-syntax-ns#" xmlns="http://www.w3.org/2000/svg" xmlns:osb="http://www.openswatchbook.org/uri/2009/osb" height="48" width="48" version="1.1" xmlns:cc="http://creativecommons.org/ns#" viewBox="0 0 12.7 12.7" xmlns:dc="http://purl.org/dc/elements/1.1/">
 <title id="title4753">UIO-icon</title>
 <metadata id="metadata5">
  <rdf:RDF>
   <cc:Work rdf:about="">
    <dc:format>image/svg+xml</dc:format>
    <dc:type rdf:resource="http://purl.org/dc/dcmitype/StillImage"/>
    <dc:title>UIO-icon</dc:title>
    <dc:creator>
     <cc:Agent>
      <dc:title>Joaquín Urbano</dc:title>
     </cc:Agent>
    </dc:creator>
    <dc:rights>
     <cc:Agent>
      <dc:title>GPL</dc:title>
     </cc:Agent>
    </dc:rights>
   </cc:Work>
  </rdf:RDF>
 </metadata>
 <g id="layer1" fill="#333" transform="translate(0,-284.3)">
  <path id="rect884" d="m0 0v48h48v-48h-48zm13.752 4.0039c2.77 0.0852 5.45 1.3795 7.228 3.6719 0.492 0.6749 0.156 1.0217-0.283 1.2656l-14.886 8.2836c-0.2342 0.13-0.4673 0.26-0.6821 0.238s-0.4122-0.195-0.5742-0.672c-1.6083-4.34 0.1579-9.2853 4.2871-11.59 1.5532-0.8631 3.2482-1.2482 4.9102-1.1971zm20.625 0.0254c3.945-0.0333 7.63 2.4127 9.023 6.3087 1.589 4.465-0.355 9.362-4.441 11.564-0.187 0.094-0.344 0.14-0.479 0.149-0.403 0.026-0.596-0.283-0.722-0.637l-5.717-16.047c-0.09-0.2518-0.18-0.5044-0.123-0.7127s0.261-0.3738 0.758-0.4551c0.568-0.1089 1.137-0.1652 1.701-0.1699zm-3.984 0.998c0.405-0.0293 0.612 0.2656 0.732 0.6016l5.746 16.127c0.161 0.453 0.331 0.944-0.611 1.105-0.57 0.112-1.142 0.169-1.707 0.176-3.959 0.049-7.663-2.397-9.061-6.305-0.595-1.672-0.694-3.405-0.371-5.035 0.538-2.7153 2.25-5.1423 4.797-6.5212 0.183-0.0921 0.34-0.1387 0.475-0.1485zm-8.579 4.5157c0.206 0.0217 0.4 0.1871 0.557 0.639 1.634 4.349-0.13 9.317-4.271 11.629-1.552 0.862-3.244 1.245-4.905 1.195-2.767-0.084-5.4426-1.371-7.2223-3.656-0.4841-0.663-0.1676-1.035 0.248-1.266l14.959-8.3242c0.21-0.1169 0.428-0.2386 0.634-0.2168zm-8.449 15.432c3.959-0.049 7.663 2.397 9.061 6.304 0.595 1.672 0.694 3.406 0.371 5.035-0.538 2.716-2.25 5.143-4.797 6.522-0.733 0.368-1.047-0.005-1.207-0.453l-5.746-16.127c-0.161-0.453-0.331-0.944 0.611-1.106 0.57-0.111 1.142-0.168 1.707-0.175zm21.358 0.031c2.767 0.083 5.443 1.371 7.222 3.656 0.484 0.663 0.168 1.034-0.248 1.266l-14.959 8.324c-0.42 0.234-0.876 0.481-1.191-0.422-1.634-4.35 0.13-9.317 4.271-11.629 1.552-0.862 3.244-1.245 4.905-1.195zm-25.286 0.955c0.4035-0.026 0.5965 0.282 0.7225 0.637l5.717 16.047c0.09 0.252 0.18 0.504 0.123 0.712-0.057 0.209-0.261 0.374-0.758 0.455-4.546 0.872-9.1317-1.686-10.724-6.138-1.5887-4.465 0.3546-9.363 4.441-11.565 0.1867-0.093 0.344-0.139 0.4785-0.148zm33.352 4.588c0.215 0.022 0.412 0.195 0.574 0.672 1.609 4.34-0.158 9.285-4.287 11.59-4.142 2.302-9.293 1.193-12.138-2.475-0.492-0.675-0.156-1.022 0.283-1.266l14.886-8.283c0.234-0.13 0.467-0.26 0.682-0.238z" fill-rule="evenodd" transform="matrix(.26458 0 0 .26458 0 284.3)"/>
 </g>
</svg>
